austria/municipalities/30612.svg

<?xml version="1.0" encoding="UTF-8"?>
<!DOCTYPE svg PUBLIC "-//W3C//DTD SVG 1.1//EN" "http://www.w3.org/Graphics/SVG/1.1/DTD/svg11.dtd">
<svg xmlns="http://www.w3.org/2000/svg" version="1.1" width="70px" height="91px" style="shape-rendering:geometricPrecision; text-rendering:geometricPrecision; image-rendering:optimizeQuality; fill-rule:evenodd; clip-rule:evenodd" xmlns:xlink="http://www.w3.org/1999/xlink">
<g><path style="opacity:1" fill="#262527" d="M -0.5,-0.5 C 22.8333,-0.5 46.1667,-0.5 69.5,-0.5C 69.5,20.1667 69.5,40.8333 69.5,61.5C 64.6979,76.6368 54.6979,86.3035 39.5,90.5C 35.8333,90.5 32.1667,90.5 28.5,90.5C 11.5983,85.2698 1.93163,73.9365 -0.5,56.5C -0.5,37.5 -0.5,18.5 -0.5,-0.5 Z"/></g>
<g><path style="opacity:1" fill="#fafafa" d="M 53.5,2.5 C 53.8333,2.5 54.1667,2.5 54.5,2.5C 58.5,2.5 62.5,2.5 66.5,2.5C 66.5,9.5 66.5,16.5 66.5,23.5C 60.5353,28.9638 54.7019,34.6304 49,40.5C 48.3292,39.7476 47.4959,39.4142 46.5,39.5C 41.7115,33.5374 35.8781,32.204 29,35.5C 27.3164,35.3166 27.1498,34.6499 28.5,33.5C 34.8189,30.5869 41.4856,28.9203 48.5,28.5C 47.3875,26.5808 46.0542,24.9142 44.5,23.5C 43.5849,21.2459 42.2516,19.2459 40.5,17.5C 45.0972,12.5746 49.4305,7.57458 53.5,2.5 Z"/></g>
<g><path style="opacity:1" fill="#3b8ebd" d="M 53.5,2.5 C 49.4305,7.57458 45.0972,12.5746 40.5,17.5C 39.3951,16.3995 38.0618,15.7329 36.5,15.5C 33.1116,11.6415 28.7783,9.64154 23.5,9.5C 22.2196,8.06873 20.5529,7.40206 18.5,7.5C 18.6563,15.5288 18.323,23.5288 17.5,31.5C 16.4565,36.3548 15.1231,41.0215 13.5,45.5C 13.1667,45.5 12.8333,45.5 12.5,45.5C 9.16667,48.5 5.83333,51.5 2.5,54.5C 2.5,37.1667 2.5,19.8333 2.5,2.5C 19.5,2.5 36.5,2.5 53.5,2.5 Z"/></g>
<g><path style="opacity:1" fill="#7f7d7c" d="M 54.5,2.5 C 58.6344,1.51511 62.9677,1.18178 67.5,1.5C 67.5,8.83333 67.5,16.1667 67.5,23.5C 67.1667,23.5 66.8333,23.5 66.5,23.5C 66.5,16.5 66.5,9.5 66.5,2.5C 62.5,2.5 58.5,2.5 54.5,2.5 Z"/></g>
<g><path style="opacity:1" fill="#384237" d="M 23.5,9.5 C 28.7783,9.64154 33.1116,11.6415 36.5,15.5C 32.1235,13.4906 27.7902,11.4906 23.5,9.5 Z"/></g>
<g><path style="opacity:1" fill="#263843" d="M 23.5,9.5 C 22.1667,9.5 20.8333,9.5 19.5,9.5C 19.6662,15.8421 19.4995,22.1754 19,28.5C 18.7679,29.7375 18.2679,30.7375 17.5,31.5C 18.323,23.5288 18.6563,15.5288 18.5,7.5C 20.5529,7.40206 22.2196,8.06873 23.5,9.5 Z"/></g>
<g><path style="opacity:1" fill="#484538" d="M 36.5,15.5 C 38.0618,15.7329 39.3951,16.3995 40.5,17.5C 42.2516,19.2459 43.5849,21.2459 44.5,23.5C 41.5,21.1667 38.8333,18.5 36.5,15.5 Z"/></g>
<g><path style="opacity:1" fill="#57503c" d="M 44.5,23.5 C 46.0542,24.9142 47.3875,26.5808 48.5,28.5C 41.4856,28.9203 34.8189,30.5869 28.5,33.5C 29.7489,31.8639 31.4156,30.6972 33.5,30C 37.5656,29.0211 41.5656,27.8545 45.5,26.5C 44.8728,25.5832 44.5394,24.5832 44.5,23.5 Z"/></g>
<g><path style="opacity:1" fill="#efeb4d" d="M 23.5,9.5 C 27.7902,11.4906 32.1235,13.4906 36.5,15.5C 38.8333,18.5 41.5,21.1667 44.5,23.5C 44.5394,24.5832 44.8728,25.5832 45.5,26.5C 41.5656,27.8545 37.5656,29.0211 33.5,30C 31.4156,30.6972 29.7489,31.8639 28.5,33.5C 26.629,33.8588 25.129,34.8588 24,36.5C 21.6647,39.1662 19.8314,42.1662 18.5,45.5C 18.8457,46.6956 19.3457,46.6956 20,45.5C 21.7256,40.9401 24.8923,37.9401 29.5,36.5C 29.8333,37 30.1667,37.5 30.5,38C 29.4558,39.1739 28.4558,40.3406 27.5,41.5C 20.4403,45.2793 18.107,50.9459 20.5,58.5C 20.5548,61.6145 21.8881,63.9478 24.5,65.5C 25.343,67.1733 26.6763,68.34 28.5,69C 32.8333,69.6667 37.1667,69.6667 41.5,69C 43.9962,67.669 45.9962,65.8356 47.5,63.5C 49.573,60.777 50.573,57.6104 50.5,54C 50.664,51.4563 49.9973,49.2897 48.5,47.5C 47.5,44.5 45.5,42.5 42.5,41.5C 42.1583,40.6618 41.4916,40.3284 40.5,40.5C 39.1938,39.5326 38.5271,38.1993 38.5,36.5C 41.4056,36.9565 44.0722,37.9565 46.5,39.5C 52.0263,45.3456 54.0263,52.3456 52.5,60.5C 51.0241,63.5825 49.3574,66.5825 47.5,69.5C 41.363,73.0213 34.6964,74.3546 27.5,73.5C 23.9249,71.9296 20.5916,69.9296 17.5,67.5C 13.9901,60.6501 12.6568,53.3167 13.5,45.5C 15.1231,41.0215 16.4565,36.3548 17.5,31.5C 18.2679,30.7375 18.7679,29.7375 19,28.5C 19.4995,22.1754 19.6662,15.8421 19.5,9.5C 20.8333,9.5 22.1667,9.5 23.5,9.5 Z"/></g>
<g><path style="opacity:1" fill="#50472f" d="M 28.5,33.5 C 27.1498,34.6499 27.3164,35.3166 29,35.5C 35.8781,32.204 41.7115,33.5374 46.5,39.5C 44.0722,37.9565 41.4056,36.9565 38.5,36.5C 38.5271,38.1993 39.1938,39.5326 40.5,40.5C 39.3509,40.7911 38.6842,41.6244 38.5,43C 38.7728,44.5328 39.1062,46.0328 39.5,47.5C 38.1805,46.0582 36.5138,45.3915 34.5,45.5C 34.1667,44.8333 33.8333,44.1667 33.5,43.5C 34.9778,43.762 36.3112,43.4287 37.5,42.5C 36.6667,42.1667 35.8333,41.8333 35,41.5C 33.6244,41.6842 32.7911,42.3509 32.5,43.5C 32.1667,43.5 31.8333,43.5 31.5,43.5C 31.719,42.325 31.3857,41.325 30.5,40.5C 29.5832,41.1272 28.5832,41.4606 27.5,41.5C 28.4558,40.3406 29.4558,39.1739 30.5,38C 30.1667,37.5 29.8333,37 29.5,36.5C 24.8923,37.9401 21.7256,40.9401 20,45.5C 19.3457,46.6956 18.8457,46.6956 18.5,45.5C 19.8314,42.1662 21.6647,39.1662 24,36.5C 25.129,34.8588 26.629,33.8588 28.5,33.5 Z"/></g>
<g><path style="opacity:1" fill="#f0ef51" d="M 32.5,34.5 C 33.8333,34.5 35.1667,34.5 36.5,34.5C 36.5,36.1667 36.5,37.8333 36.5,39.5C 35.1667,39.5 33.8333,39.5 32.5,39.5C 32.5,37.8333 32.5,36.1667 32.5,34.5 Z"/></g>
<g><path style="opacity:1" fill="#ebec4d" d="M 33.5,43.5 C 33.1667,43.5 32.8333,43.5 32.5,43.5C 32.7911,42.3509 33.6244,41.6842 35,41.5C 35.8333,41.8333 36.6667,42.1667 37.5,42.5C 36.3112,43.4287 34.9778,43.762 33.5,43.5 Z"/></g>
<g><path style="opacity:1" fill="#e7e9e8" d="M 40.5,40.5 C 41.4916,40.3284 42.1583,40.6618 42.5,41.5C 45.1706,44.5447 44.504,46.8781 40.5,48.5C 40.5,47.8333 40.1667,47.5 39.5,47.5C 39.1062,46.0328 38.7728,44.5328 38.5,43C 38.6842,41.6244 39.3509,40.7911 40.5,40.5 Z"/></g>
<g><path style="opacity:1" fill="#4b2e2f" d="M 31.5,43.5 C 31.8333,43.5 32.1667,43.5 32.5,43.5C 32.8333,43.5 33.1667,43.5 33.5,43.5C 33.8333,44.1667 34.1667,44.8333 34.5,45.5C 32.6096,45.2965 31.1096,45.9632 30,47.5C 29.5014,51.1516 29.3347,54.8183 29.5,58.5C 31.1667,58.5 32.8333,58.5 34.5,58.5C 35.4916,58.3284 36.1583,58.6618 36.5,59.5C 34.901,59.2322 33.5676,59.5655 32.5,60.5C 31.0048,60.0113 29.6715,59.3446 28.5,58.5C 28.3345,54.4862 28.5012,50.4862 29,46.5C 30.045,45.6266 30.8783,44.6266 31.5,43.5 Z"/></g>
<g><path style="opacity:1" fill="#483f2d" d="M 27.5,41.5 C 22.1417,45.8876 19.8084,51.5543 20.5,58.5C 18.107,50.9459 20.4403,45.2793 27.5,41.5 Z"/></g>
<g><path style="opacity:1" fill="#eeeae9" d="M 34.5,45.5 C 36.5138,45.3915 38.1805,46.0582 39.5,47.5C 39.8226,51.226 39.4892,54.8927 38.5,58.5C 37.8165,58.8627 37.1499,59.1961 36.5,59.5C 36.1583,58.6618 35.4916,58.3284 34.5,58.5C 34.5,54.1667 34.5,49.8333 34.5,45.5 Z"/></g>
<g><path style="opacity:1" fill="#c75950" d="M 34.5,45.5 C 34.5,49.8333 34.5,54.1667 34.5,58.5C 32.8333,58.5 31.1667,58.5 29.5,58.5C 29.3347,54.8183 29.5014,51.1516 30,47.5C 31.1096,45.9632 32.6096,45.2965 34.5,45.5 Z"/></g>
<g><path style="opacity:1" fill="#3a464b" d="M 48.5,47.5 C 49.9973,49.2897 50.664,51.4563 50.5,54C 50.573,57.6104 49.573,60.777 47.5,63.5C 48.3424,58.213 48.6757,52.8797 48.5,47.5 Z"/></g>
<g><path style="opacity:1" fill="#f6f7f7" d="M 12.5,45.5 C 10.7384,52.4769 11.5717,59.1436 15,65.5C 15.7083,66.3805 16.5416,67.0472 17.5,67.5C 18.0283,68.8474 18.195,70.1807 18,71.5C 16.4645,74.2937 14.2978,76.2937 11.5,77.5C 5.18961,71.2531 2.18961,63.5864 2.5,54.5C 5.83333,51.5 9.16667,48.5 12.5,45.5 Z"/></g>
<g><path style="opacity:1" fill="#60583e" d="M 12.5,45.5 C 12.8333,45.5 13.1667,45.5 13.5,45.5C 12.6568,53.3167 13.9901,60.6501 17.5,67.5C 16.5416,67.0472 15.7083,66.3805 15,65.5C 11.5717,59.1436 10.7384,52.4769 12.5,45.5 Z"/></g>
<g><path style="opacity:1" fill="#f6f7f5" d="M 31.5,43.5 C 30.8783,44.6266 30.045,45.6266 29,46.5C 28.5012,50.4862 28.3345,54.4862 28.5,58.5C 28.7135,61.0534 27.3801,63.0534 24.5,64.5C 23.1535,62.4632 21.8202,60.4632 20.5,58.5C 19.8084,51.5543 22.1417,45.8876 27.5,41.5C 28.5832,41.4606 29.5832,41.1272 30.5,40.5C 31.3857,41.325 31.719,42.325 31.5,43.5 Z"/></g>
<g><path style="opacity:1" fill="#314148" d="M 62.5,55.5 C 64.6086,56.0524 65.4419,57.3858 65,59.5C 62.7724,61.1134 60.2724,61.78 57.5,61.5C 58.9899,59.7202 60.9899,59.0535 63.5,59.5C 63.5674,58.0413 63.2341,56.7079 62.5,55.5 Z"/></g>
<g><path style="opacity:1" fill="#254864" d="M 39.5,47.5 C 40.1667,47.5 40.5,47.8333 40.5,48.5C 40.5,52.5 40.5,56.5 40.5,60.5C 37.8333,60.5 35.1667,60.5 32.5,60.5C 33.5676,59.5655 34.901,59.2322 36.5,59.5C 37.1499,59.1961 37.8165,58.8627 38.5,58.5C 39.4892,54.8927 39.8226,51.226 39.5,47.5 Z"/></g>
<g><path style="opacity:1" fill="#473d2e" d="M 20.5,58.5 C 21.8202,60.4632 23.1535,62.4632 24.5,64.5C 24.5,64.8333 24.5,65.1667 24.5,65.5C 21.8881,63.9478 20.5548,61.6145 20.5,58.5 Z"/></g>
<g><path style="opacity:1" fill="#d9d354" d="M 58.5,54.5 C 59.9587,54.4326 61.2921,54.7659 62.5,55.5C 63.2341,56.7079 63.5674,58.0413 63.5,59.5C 60.9899,59.0535 58.9899,59.7202 57.5,61.5C 55.5956,61.7376 54.2623,62.7376 53.5,64.5C 52.7611,64.631 52.0944,64.4643 51.5,64C 52.305,62.8873 52.9717,61.7206 53.5,60.5C 56.4959,59.5256 58.1625,57.5256 58.5,54.5 Z"/></g>
<g><path style="opacity:1" fill="#3d88b3" d="M 42.5,41.5 C 45.5,42.5 47.5,44.5 48.5,47.5C 48.6757,52.8797 48.3424,58.213 47.5,63.5C 45.9962,65.8356 43.9962,67.669 41.5,69C 37.1667,69.6667 32.8333,69.6667 28.5,69C 26.6763,68.34 25.343,67.1733 24.5,65.5C 24.5,65.1667 24.5,64.8333 24.5,64.5C 27.3801,63.0534 28.7135,61.0534 28.5,58.5C 29.6715,59.3446 31.0048,60.0113 32.5,60.5C 35.1667,60.5 37.8333,60.5 40.5,60.5C 40.5,56.5 40.5,52.5 40.5,48.5C 44.504,46.8781 45.1706,44.5447 42.5,41.5 Z"/></g>
<g><path style="opacity:1" fill="#353425" d="M 52.5,60.5 C 52.8333,60.5 53.1667,60.5 53.5,60.5C 52.9717,61.7206 52.305,62.8873 51.5,64C 52.0944,64.4643 52.7611,64.631 53.5,64.5C 51.5398,66.1563 49.5398,67.823 47.5,69.5C 49.3574,66.5825 51.0241,63.5825 52.5,60.5 Z"/></g>
<g><path style="opacity:1" fill="#3e86b0" d="M 66.5,23.5 C 66.8333,23.5 67.1667,23.5 67.5,23.5C 67.6666,36.1711 67.4999,48.8377 67,61.5C 65.2914,68.5892 61.7914,74.5892 56.5,79.5C 55.9101,78.234 55.4101,76.9007 55,75.5C 54.6667,75.8333 54.3333,76.1667 54,76.5C 53.8038,74.7139 52.9705,73.3805 51.5,72.5C 49.6508,73.593 47.9842,74.9263 46.5,76.5C 45.8333,75.5 45.1667,74.5 44.5,73.5C 39.7298,75.5356 34.7298,76.0356 29.5,75C 28.5842,74.7216 27.9175,74.2216 27.5,73.5C 34.6964,74.3546 41.363,73.0213 47.5,69.5C 49.5398,67.823 51.5398,66.1563 53.5,64.5C 54.2623,62.7376 55.5956,61.7376 57.5,61.5C 60.2724,61.78 62.7724,61.1134 65,59.5C 65.4419,57.3858 64.6086,56.0524 62.5,55.5C 62.38,54.4138 61.7133,53.7472 60.5,53.5C 59.5836,53.5427 58.9169,53.8761 58.5,54.5C 58.1625,57.5256 56.4959,59.5256 53.5,60.5C 53.1667,60.5 52.8333,60.5 52.5,60.5C 54.0263,52.3456 52.0263,45.3456 46.5,39.5C 47.4959,39.4142 48.3292,39.7476 49,40.5C 54.7019,34.6304 60.5353,28.9638 66.5,23.5 Z"/></g>
<g><path style="opacity:1" fill="#414a25" d="M 58.5,54.5 C 58.9169,53.8761 59.5836,53.5427 60.5,53.5C 61.7133,53.7472 62.38,54.4138 62.5,55.5C 61.2921,54.7659 59.9587,54.4326 58.5,54.5 Z"/></g>
<g><path style="opacity:1" fill="#faf9d8" d="M -0.5,56.5 C 1.93163,73.9365 11.5983,85.2698 28.5,90.5C 18.8333,90.5 9.16667,90.5 -0.5,90.5C -0.5,79.1667 -0.5,67.8333 -0.5,56.5 Z"/></g>
<g><path style="opacity:1" fill="#3a8ebd" d="M 17.5,67.5 C 20.5916,69.9296 23.9249,71.9296 27.5,73.5C 27.9175,74.2216 28.5842,74.7216 29.5,75C 34.7298,76.0356 39.7298,75.5356 44.5,73.5C 45.1667,74.5 45.8333,75.5 46.5,76.5C 47.9842,74.9263 49.6508,73.593 51.5,72.5C 52.9705,73.3805 53.8038,74.7139 54,76.5C 54.3333,76.1667 54.6667,75.8333 55,75.5C 55.4101,76.9007 55.9101,78.234 56.5,79.5C 43.3863,89.144 29.7197,89.9773 15.5,82C 13.9586,80.6288 12.6253,79.1288 11.5,77.5C 14.2978,76.2937 16.4645,74.2937 18,71.5C 18.195,70.1807 18.0283,68.8474 17.5,67.5 Z"/></g>
<g><path style="opacity:1" fill="#f9f9d8" d="M 69.5,61.5 C 69.5,71.1667 69.5,80.8333 69.5,90.5C 59.5,90.5 49.5,90.5 39.5,90.5C 54.6979,86.3035 64.6979,76.6368 69.5,61.5 Z"/></g>
</svg>

<svg xmlns="http://www.w3.org/2000/svg" width="70" height="91" style="shape-rendering:geometricPrecision;text-rendering:geometricPrecision;image-rendering:optimizeQuality;fill-rule:evenodd;clip-rule:evenodd"><path style="opacity:1" fill="#262527" d="M-.5-.5h70v62c-4.802 15.137-14.802 24.803-30 29h-11c-16.902-5.23-26.568-16.564-29-34v-57z"/><path style="opacity:1" fill="#fafafa" d="M53.5 2.5h13v21a418.52 418.52 0 0 0-17.5 17c-.67-.752-1.504-1.086-2.5-1-4.788-5.963-10.622-7.296-17.5-4-1.684-.183-1.85-.85-.5-2 6.319-2.913 12.986-4.58 20-5-1.112-1.92-2.446-3.586-4-5a17.908 17.908 0 0 0-4-6 264.602 264.602 0 0 0 13-15z"/><path style="opacity:1" fill="#3b8ebd" d="M53.5 2.5a264.602 264.602 0 0 1-13 15c-1.105-1.1-2.438-1.767-4-2-3.388-3.858-7.722-5.858-13-6-1.28-1.431-2.947-2.098-5-2a196.272 196.272 0 0 1-1 24 107.073 107.073 0 0 1-4 14h-1l-10 9v-52h51z"/><path style="opacity:1" fill="#7f7d7c" d="M54.5 2.5c4.134-.985 8.468-1.318 13-1v22h-1v-21h-12z"/><path style="opacity:1" fill="#384237" d="M23.5 9.5c5.278.142 9.612 2.142 13 6-4.377-2.01-8.71-4.01-13-6z"/><path style="opacity:1" fill="#263843" d="M23.5 9.5h-4c.166 6.342 0 12.675-.5 19-.232 1.238-.732 2.238-1.5 3a196.272 196.272 0 0 0 1-24c2.053-.098 3.72.569 5 2z"/><path style="opacity:1" fill="#484538" d="M36.5 15.5c1.562.233 2.895.9 4 2a17.908 17.908 0 0 1 4 6c-3-2.333-5.667-5-8-8z"/><path style="opacity:1" fill="#57503c" d="M44.5 23.5c1.554 1.414 2.888 3.08 4 5-7.014.42-13.681 2.087-20 5 1.249-1.636 2.916-2.803 5-3.5a131.164 131.164 0 0 0 12-3.5 5.576 5.576 0 0 1-1-3z"/><path style="opacity:1" fill="#efeb4d" d="M23.5 9.5c4.29 1.99 8.623 3.99 13 6 2.333 3 5 5.667 8 8a5.576 5.576 0 0 0 1 3 131.164 131.164 0 0 1-12 3.5c-2.084.697-3.751 1.864-5 3.5-1.871.359-3.371 1.359-4.5 3a31.007 31.007 0 0 0-5.5 9c.346 1.196.846 1.196 1.5 0 1.726-4.56 4.892-7.56 9.5-9l1 1.5a122.796 122.796 0 0 0-3 3.5c-7.06 3.78-9.393 9.446-7 17 .055 3.114 1.388 5.448 4 7 .843 1.673 2.176 2.84 4 3.5 4.333.667 8.667.667 13 0 2.496-1.331 4.496-3.164 6-5.5 2.073-2.723 3.073-5.89 3-9.5.164-2.544-.503-4.71-2-6.5-1-3-3-5-6-6-.342-.838-1.008-1.172-2-1-1.306-.967-1.973-2.3-2-4 2.906.456 5.572 1.456 8 3 5.526 5.846 7.526 12.846 6 21a85.501 85.501 0 0 1-5 9c-6.137 3.521-12.804 4.855-20 4a46.184 46.184 0 0 1-10-6c-3.51-6.85-4.843-14.183-4-22a107.073 107.073 0 0 0 4-14c.768-.762 1.268-1.762 1.5-3 .5-6.325.666-12.658.5-19h4z"/><path style="opacity:1" fill="#50472f" d="M28.5 33.5c-1.35 1.15-1.184 1.817.5 2 6.878-3.296 12.712-1.963 17.5 4-2.428-1.544-5.094-2.544-8-3 .027 1.7.694 3.033 2 4-1.15.291-1.816 1.124-2 2.5a53.543 53.543 0 0 0 1 4.5c-1.32-1.442-2.986-2.108-5-2l-1-2c1.478.262 2.811-.071 4-1l-2.5-1c-1.376.184-2.209.85-2.5 2h-1c.219-1.175-.114-2.175-1-3a5.576 5.576 0 0 1-3 1c.956-1.16 1.956-2.326 3-3.5l-1-1.5c-4.608 1.44-7.774 4.44-9.5 9-.654 1.196-1.154 1.196-1.5 0a31.007 31.007 0 0 1 5.5-9c1.129-1.641 2.629-2.641 4.5-3z"/><path style="opacity:1" fill="#f0ef51" d="M32.5 34.5h4v5h-4v-5z"/><path style="opacity:1" fill="#ebec4d" d="M33.5 43.5h-1c.291-1.15 1.124-1.816 2.5-2l2.5 1c-1.189.929-2.522 1.262-4 1z"/><path style="opacity:1" fill="#e7e9e8" d="M40.5 40.5c.992-.172 1.658.162 2 1 2.67 3.045 2.004 5.378-2 7 0-.667-.333-1-1-1a53.543 53.543 0 0 1-1-4.5c.184-1.376.85-2.209 2-2.5z"/><path style="opacity:1" fill="#4b2e2f" d="M31.5 43.5h2l1 2c-1.89-.203-3.39.463-4.5 2a60.94 60.94 0 0 0-.5 11h5c.992-.172 1.658.162 2 1-1.599-.268-2.932.066-4 1-1.495-.489-2.828-1.155-4-2a72.444 72.444 0 0 1 .5-12 10.521 10.521 0 0 0 2.5-3z"/><path style="opacity:1" fill="#483f2d" d="M27.5 41.5c-5.358 4.388-7.692 10.054-7 17-2.393-7.554-.06-13.22 7-17z"/><path style="opacity:1" fill="#eeeae9" d="M34.5 45.5c2.014-.108 3.68.558 5 2a31.121 31.121 0 0 1-1 11c-.684.363-1.35.696-2 1-.342-.838-1.008-1.172-2-1v-13z"/><path style="opacity:1" fill="#c75950" d="M34.5 45.5v13h-5a60.94 60.94 0 0 1 .5-11c1.11-1.537 2.61-2.203 4.5-2z"/><path style="opacity:1" fill="#3a464b" d="M48.5 47.5c1.497 1.79 2.164 3.956 2 6.5.073 3.61-.927 6.777-3 9.5a84.022 84.022 0 0 0 1-16z"/><path style="opacity:1" fill="#f6f7f7" d="M12.5 45.5c-1.762 6.977-.928 13.644 2.5 20 .708.88 1.542 1.547 2.5 2 .528 1.347.695 2.68.5 4-1.535 2.794-3.702 4.794-6.5 6-6.31-6.247-9.31-13.914-9-23l10-9z"/><path style="opacity:1" fill="#60583e" d="M12.5 45.5h1c-.843 7.817.49 15.15 4 22-.958-.453-1.792-1.12-2.5-2-3.428-6.356-4.262-13.023-2.5-20z"/><path style="opacity:1" fill="#f6f7f5" d="M31.5 43.5a10.521 10.521 0 0 1-2.5 3 72.444 72.444 0 0 0-.5 12c.213 2.553-1.12 4.553-4 6a914.972 914.972 0 0 0-4-6c-.692-6.946 1.642-12.612 7-17a5.576 5.576 0 0 0 3-1c.886.825 1.219 1.825 1 3z"/><path style="opacity:1" fill="#314148" d="M62.5 55.5c2.109.552 2.942 1.886 2.5 4-2.228 1.613-4.728 2.28-7.5 2 1.49-1.78 3.49-2.447 6-2 .067-1.459-.266-2.792-1-4z"/><path style="opacity:1" fill="#254864" d="M39.5 47.5c.667 0 1 .333 1 1v12h-8c1.068-.934 2.401-1.268 4-1 .65-.304 1.316-.637 2-1a31.121 31.121 0 0 0 1-11z"/><path style="opacity:1" fill="#473d2e" d="M20.5 58.5a914.972 914.972 0 0 1 4 6v1c-2.612-1.552-3.945-3.886-4-7z"/><path style="opacity:1" fill="#d9d354" d="M58.5 54.5c1.459-.067 2.792.266 4 1 .734 1.208 1.067 2.541 1 4-2.51-.447-4.51.22-6 2-1.904.238-3.238 1.238-4 3a2.428 2.428 0 0 1-2-.5 18.492 18.492 0 0 0 2-3.5c2.996-.974 4.663-2.974 5-6z"/><path style="opacity:1" fill="#3d88b3" d="M42.5 41.5c3 1 5 3 6 6a84.022 84.022 0 0 1-1 16c-1.504 2.336-3.504 4.169-6 5.5a42.498 42.498 0 0 1-13 0c-1.824-.66-3.157-1.827-4-3.5v-1c2.88-1.447 4.213-3.447 4-6 1.172.845 2.505 1.511 4 2h8v-12c4.004-1.622 4.67-3.955 2-7z"/><path style="opacity:1" fill="#353425" d="M52.5 60.5h1a18.492 18.492 0 0 1-2 3.5 2.428 2.428 0 0 0 2 .5 579.993 579.993 0 0 1-6 5 85.501 85.501 0 0 0 5-9z"/><path style="opacity:1" fill="#3e86b0" d="M66.5 23.5h1c.167 12.671 0 25.338-.5 38-1.709 7.09-5.209 13.09-10.5 18-.59-1.266-1.09-2.6-1.5-4l-1 1c-.196-1.786-1.03-3.12-2.5-4a22.763 22.763 0 0 0-5 4l-2-3c-4.77 2.036-9.77 2.536-15 1.5-.916-.278-1.582-.778-2-1.5 7.196.855 13.863-.479 20-4 2.04-1.677 4.04-3.344 6-5 .762-1.762 2.096-2.762 4-3 2.772.28 5.272-.387 7.5-2 .442-2.114-.391-3.448-2.5-4-.12-1.086-.787-1.753-2-2-.916.043-1.583.376-2 1-.337 3.026-2.004 5.026-5 6h-1c1.526-8.154-.474-15.154-6-21 .996-.086 1.83.248 2.5 1a418.52 418.52 0 0 1 17.5-17z"/><path style="opacity:1" fill="#414a25" d="M58.5 54.5c.417-.624 1.084-.957 2-1 1.213.247 1.88.914 2 2-1.208-.734-2.541-1.067-4-1z"/><path style="opacity:1" fill="#faf9d8" d="M-.5 56.5c2.432 17.436 12.098 28.77 29 34h-29v-34z"/><path style="opacity:1" fill="#3a8ebd" d="M17.5 67.5a46.184 46.184 0 0 0 10 6c.418.722 1.084 1.222 2 1.5 5.23 1.036 10.23.536 15-1.5l2 3a22.763 22.763 0 0 1 5-4c1.47.88 2.304 2.214 2.5 4l1-1c.41 1.4.91 2.734 1.5 4-13.114 9.644-26.78 10.477-41 2.5a25.15 25.15 0 0 1-4-4.5c2.798-1.206 4.965-3.206 6.5-6 .195-1.32.028-2.653-.5-4z"/><path style="opacity:1" fill="#f9f9d8" d="M69.5 61.5v29h-30c15.198-4.197 25.198-13.863 30-29z"/></svg>
